build/assets/icon4CLR.svg

<svg width="140" height="105" viewBox="0 0 140 105" fill="none" xmlns="http://www.w3.org/2000/svg">
<path d="M129.375 12.75H82.625C81.4514 12.75 80.5 13.7014 80.5 14.875V53.125C80.5 54.2986 81.4514 55.25 82.625 55.25H129.375C130.549 55.25 131.5 54.2986 131.5 53.125V14.875C131.5 13.7014 130.549 12.75 129.375 12.75Z" stroke="#A09AFF" stroke-width="4.25" stroke-linecap="round" stroke-linejoin="round"/>
<path d="M80.5 44.6249L93.8724 31.2525C94.0697 31.0552 94.3039 30.8987 94.5618 30.7919C94.8196 30.6851 95.0959 30.6301 95.375 30.6301C95.654 30.6301 95.9303 30.6851 96.1882 30.7919C96.446 30.8987 96.6802 31.0552 96.8776 31.2525L108.747 43.1223C108.945 43.3196 109.179 43.4762 109.437 43.583C109.695 43.6898 109.971 43.7447 110.25 43.7447C110.529 43.7447 110.805 43.6898 111.063 43.583C111.321 43.4762 111.555 43.3196 111.753 43.1223L117.247 37.6275C117.445 37.4302 117.679 37.2737 117.937 37.1669C118.195 37.0601 118.471 37.0051 118.75 37.0051C119.029 37.0051 119.305 37.0601 119.563 37.1669C119.821 37.2737 120.055 37.4302 120.253 37.6275L131.5 48.8749" stroke="#A09AFF" stroke-width="4.25" stroke-linecap="round" stroke-linejoin="round"/>
<path d="M113.438 29.75C115.198 29.75 116.625 28.3229 116.625 26.5625C116.625 24.8021 115.198 23.375 113.438 23.375C111.677 23.375 110.25 24.8021 110.25 26.5625C110.25 28.3229 111.677 29.75 113.438 29.75Z" fill="#A09AFF"/>
<path d="M46.5 93.5C65.5538 93.5 81 78.0538 81 59C81 39.9462 65.5538 24.5 46.5 24.5C27.4462 24.5 12 39.9462 12 59C12 78.0538 27.4462 93.5 46.5 93.5Z" stroke="#6C63FF" stroke-width="5.75" stroke-linecap="round" stroke-linejoin="round"/>
<path d="M46.5 24.5L59.6808 61.4063" stroke="#6C63FF" stroke-width="5.75" stroke-linecap="round" stroke-linejoin="round"/>
<path d="M16.623 41.75L55.1753 48.7882" stroke="#6C63FF" stroke-width="5.75" stroke-linecap="round" stroke-linejoin="round"/>
<path d="M16.623 76.2499L41.9945 46.3818" stroke="#6C63FF" stroke-width="5.75" stroke-linecap="round" stroke-linejoin="round"/>
<path d="M46.5011 93.5L33.3203 56.5937" stroke="#6C63FF" stroke-width="5.75" stroke-linecap="round" stroke-linejoin="round"/>
<path d="M76.3784 76.25L37.8262 69.2117" stroke="#6C63FF" stroke-width="5.75" stroke-linecap="round" stroke-linejoin="round"/>
<path d="M76.3792 41.75L51.0078 71.6181" stroke="#6C63FF" stroke-width="5.75" stroke-linecap="round" stroke-linejoin="round"/>
</svg>

<svg width="140" height="105" fill="none" xmlns="http://www.w3.org/2000/svg"><path d="M129.375 12.75h-46.75a2.125 2.125 0 0 0-2.125 2.125v38.25c0 1.174.951 2.125 2.125 2.125h46.75a2.125 2.125 0 0 0 2.125-2.125v-38.25a2.125 2.125 0 0 0-2.125-2.125Z" stroke="#A09AFF" stroke-width="4.25" stroke-linecap="round" stroke-linejoin="round"/><path d="m80.5 44.625 13.372-13.372a2.124 2.124 0 0 1 3.006 0l11.869 11.87a2.133 2.133 0 0 0 1.503.622 2.125 2.125 0 0 0 1.503-.623l5.494-5.495a2.133 2.133 0 0 1 1.503-.622 2.125 2.125 0 0 1 1.503.622L131.5 48.875" stroke="#A09AFF" stroke-width="4.25" stroke-linecap="round" stroke-linejoin="round"/><path d="M113.438 29.75a3.187 3.187 0 1 0 0-6.375 3.187 3.187 0 0 0 0 6.375Z" fill="#A09AFF"/><path d="M46.5 93.5C65.554 93.5 81 78.054 81 59c0-19.054-15.446-34.5-34.5-34.5C27.446 24.5 12 39.946 12 59c0 19.054 15.446 34.5 34.5 34.5ZM46.5 24.5l13.18 36.906M16.623 41.75l38.552 7.038M16.623 76.25l25.372-29.868M46.501 93.5l-13.18-36.906M76.378 76.25l-38.552-7.038M76.38 41.75 51.007 71.618" stroke="#6C63FF" stroke-width="5.75" stroke-linecap="round" stroke-linejoin="round"/></svg>
